scalable/status/software-update-available.svg

<?xml version="1.0" encoding="UTF-8" standalone="no"?>
<svg
   xmlns:dc="http://purl.org/dc/elements/1.1/"
   xmlns:cc="http://creativecommons.org/ns#"
   xmlns:rdf="http://www.w3.org/1999/02/22-rdf-syntax-ns#"
   xmlns:svg="http://www.w3.org/2000/svg"
   xmlns="http://www.w3.org/2000/svg"
   xmlns:sodipodi="http://sodipodi.sourceforge.net/DTD/sodipodi-0.dtd"
   xmlns:inkscape="http://www.inkscape.org/namespaces/inkscape"
   fill="#000000"
   height="48"
   version="1.1"
   viewBox="0 0 48 48"
   width="48"
   id="svg4"
   sodipodi:docname="software-update-available.svg"
   inkscape:version="0.92.3 (2405546, 2018-03-11)">
  <metadata
     id="metadata10">
    <rdf:RDF>
      <cc:Work
         rdf:about="">
        <dc:format>image/svg+xml</dc:format>
        <dc:type
           rdf:resource="http://purl.org/dc/dcmitype/StillImage" />
      </cc:Work>
    </rdf:RDF>
  </metadata>
  <defs
     id="defs8" />
  <sodipodi:namedview
     pagecolor="#ffffff"
     bordercolor="#666666"
     borderopacity="1"
     objecttolerance="10"
     gridtolerance="10"
     guidetolerance="10"
     inkscape:pageopacity="0"
     inkscape:pageshadow="2"
     inkscape:window-width="1366"
     inkscape:window-height="690"
     id="namedview6"
     showgrid="false"
     inkscape:zoom="4.9166667"
     inkscape:cx="-11.084746"
     inkscape:cy="24"
     inkscape:window-x="0"
     inkscape:window-y="28"
     inkscape:window-maximized="1"
     inkscape:current-layer="svg4" />
  <path
     style="opacity:1;fill:#cccccc;fill-opacity:1;fill-rule:nonzero;stroke:none;stroke-width:0.25577837;stroke-linecap:butt;stroke-linejoin:round;stroke-miterlimit:4;stroke-dasharray:none;stroke-dashoffset:0;stroke-opacity:1;paint-order:markers fill stroke"
     d="M 24.203125 0.66015625 L 17.207031 7.65625 L 7.3105469 7.65625 L 7.3105469 17.552734 L 0.45703125 24.40625 L 7.3105469 31.259766 L 7.3105469 40.953125 L 17.001953 40.953125 L 24 47.951172 L 30.996094 40.953125 L 40.892578 40.953125 L 40.892578 31.056641 L 47.746094 24.203125 L 40.892578 17.349609 L 40.892578 7.65625 L 31.201172 7.65625 L 24.203125 0.66015625 z M 17 15.025391 L 31 15.025391 L 31 22.025391 L 31.453125 22.025391 L 42 22.025391 L 24 40.025391 L 6 22.025391 L 17 22.025391 L 17 15.025391 z "
     id="rect7" />
</svg>

<svg xmlns="http://www.w3.org/2000/svg" xmlns:xlink="http://www.w3.org/1999/xlink" height="48" width="48"><defs><linearGradient id="a"><stop offset="0"/><stop offset="1" stop-opacity=".02"/></linearGradient><linearGradient xlink:href="#a" id="b" gradientUnits="userSpaceOnUse" x1="14.01" y1="30.04" x2="46.82" y2="30.59"/></defs><path d="M24.2.66l-7 7H7.32v9.9L.46 24.4l6.85 6.85v9.7h9.7l6.99 7 7-7h9.9v-9.9l6.85-6.86-6.86-6.85v-9.7H31.2z" fill="#447821" paint-order="markers fill stroke"/><path d="M27.96 43.99L31 40.95h9.9v-9.9L45.95 26 42 22.03l-3.19.8-7.81-7.8-9.95 22.04z" opacity=".5" fill="url(#b)"/><path d="M17 15.03h14v7h11l-18 18-18-18h11z" fill="#fff" paint-order="markers fill stroke"/></svg>
